X:46
T:Black Mountain Rag
C:Traditional
N:Arranged by Dan Freeman
R:bluegrass
L:1/8
Q:1/4=220
M:4/4
K:A
[c2A2] [cA][cA] [c2A2] [cA][cA] | [c2A2] [cA][cA] [c2A2] AB | "A"[ec]e [fc]c [ec][fA] [eA]B | 
[ec]e [fc]c [e2c2] [eA]B | [ec]e [fc]c [ec][fA] [eA]=c | "E"BA FE "A"[e2A2] [eA]B | 
[ec]e [fc]c [ec][fA] [eA]B | [ec]e [fc]c [e2c2] [eA]B | [ec]e [fc]c [ec][fA] [eA]=c | 
B"E"A FE "A"[e4A4] | "A"[c2E2] [cE][cE] [c2E2] [cE][cE] | [cE]B AF E2 C2 | [c2E2] zB A2 F2 | 
"E"EF ED "A"CB, [E2A,2] | "A"[c2E2] [cE][cE] [c2E2] [cE][cE] | [cE]B AF E2 C2 | 
[c2E2] zB A2 F2 | "E"EF ED "A"CB, A,2 | "A"[E2C2] [EC][EC] [EC][EA,] [EB,][D=G,] | 
[E2A,2] [EA,][EA,] [EB,][EA,] [E2C2] | "D"[F2D2] [FD][FD] [FD][FD] [FD]D | [AF]z A2 zA F2 | 
"A"[E2C2] [EC][EC] [EC][EA,] [EB,][D=G,] | [E2A,2] [EA,][EA,] [EB,][EA,] [E2C2] | 
"E"[E2B,2] [EB,][EB,] [EB,][EB,] [EB,][EB,] | [E2B,2] [EB,][EB,] [EB,][EB,] [EB,][EB,] | 
"A"[E2C2] [EC][EC] [EC][EA,] [EB,][D=G,] | [E2A,2] [EA,][EA,] [EB,][EA,] [E2C2] | 
"D"[F2D2] [FD][FD] [FD][FD] [FD]D | [AF]z A2 zA F2 | "A"[E2C2] [EC][EC] [EC][EC] [E2C2] | 
"E"[E2B,2] [EB,][EB,] [EB,][EC] [E2B,2] | "A"[E2A,2] [EA,][EA,] {=C}^CE FE | [c2A2] [cA][cA] [c2A2] AB | 
"A"[ec]e [fc]c [ec][fA] [eA]B | [ec]e [fc]c [e2c2] [eA]B | [ec]e [fc]c [ec][fA] [eA]=c | 
"E"BA3 A2 [eA]B | [ec]e [fc]c [ec][fA] [eA]B | [ec]e [fc]c [e2c2] [eA]B | [ec]e [fc]c [ac][fc] e=c | 
B"E"A FE "A"[A4E4] | "A"[c2E2] [cE][cE] [c2E2] [cE][cE] | [cE]B AF E2 C2 | [c2E2] zB A2 F2 | 
"E"EF ED "A"CB, A,2 | "A"[c2E2] [cE][cE] [c2E2] [cE][cE] | [cE]B AF E2 C2 | [c2E2] zB A2 F2 | 
"E"EF ED "A"CB, A,2 | "A"[c2E2] [cE][cE] [cE]A BA | [A2A2] [AA][AA] Ac ee | "D"[a2f2] [af][af] [af]a ba | 
=c'b ac' ba fe | "A"[c2E2] [cE][cE] [cE]A BA | [A2A2] [AA][AA] [AA][AA] [AA]A | 
"E"B2 F3B BB | =G2 BB ^G4 | "A"[c2E2] [cE][cE] [cE]A BA | [A2A2] [AA][AA] [AA][A3A3] | 
"D"[a2f2] [af][af] [af]a [ae]e | [a2d2] [ad][ad] [ad][ad] [a2d2] | "A"[c2E2] [cE][cE] [cE][dE] [cE]A | 
"E"[B2G2] [BG][BG] [BG]c BG | "A"A2 AA cd ^de | a8 ||

